apps/32/qelectrotech.svg

<svg width="32" height="32" version="1.1" viewBox="0 0 32 32" xmlns="http://www.w3.org/2000/svg" xmlns:xlink="http://www.w3.org/1999/xlink">
<defs>
<linearGradient id="linearGradient3403" x1="6.9492" x2="11.215" y1="4.5549" y2="59.052" gradientUnits="userSpaceOnUse">
<stop style="stop-color:#32373c" offset="0"/>
<stop style="stop-color:#1a1a1a" offset=".36805"/>
<stop style="stop-color:#31363b" offset="1"/>
</linearGradient>
<linearGradient id="linearGradient20558" x1="25.802" x2="25.111" y1="20.374" y2="58.913" gradientUnits="userSpaceOnUse">
<stop style="stop-color:#3d3d3d" offset="0"/>
<stop offset=".61772"/>
<stop style="stop-color:#3d3d3d" offset="1"/>
</linearGradient>
<linearGradient id="linearGradient4557" x1="43.5" x2="44.142" y1="64.012" y2=".30621" gradientTransform="translate(.36068 -.13017)" gradientUnits="userSpaceOnUse">
<stop style="stop-color:#141618" offset="0"/>
<stop style="stop-color:#686868" offset=".51821"/>
<stop style="stop-color:#31363b" offset="1"/>
</linearGradient>
<linearGradient id="a" x2="0" y1="1048.9" y2="1007.8" gradientUnits="userSpaceOnUse">
<stop stop-color="#3889e9" offset="0"/>
<stop stop-color="#5ea5fb" offset="1"/>
</linearGradient>
<linearGradient id="b" x1="396.57" x2="412.57" y1="513.38" y2="531.38" gradientTransform="translate(-384.57,504.98)" gradientUnits="userSpaceOnUse">
<stop stop-color="#292c2f" offset="0"/>
<stop stop-opacity="0" offset="1"/>
</linearGradient>
<linearGradient id="c" x2="0" y1="534.8" y2="510.8" gradientTransform="translate(-384.57,-499.8)" gradientUnits="userSpaceOnUse">
<stop stop-color="#8cbdf8" offset="0"/>
<stop stop-color="#d5e8ff" offset="1"/>
</linearGradient>
</defs>
<g transform="matrix(.65949 0 0 .68145 1.0435 -685.3)" style="fill-rule:evenodd">
<path d="m5 1009.4h38v38h-38z" style="fill:#fff"/>
<path d="m4 1008.4h40v40h-40z" style="fill:url(#a)"/>
<path d="m5 1009.4v38h38v-38zm1 1h36v36h-36z" style="color:#000000;fill:#fff;opacity:.2;stroke-width:2"/>
<path d="m10 1036.4 13 12h21v-25l-5-5v18h-4l-3 3-4-3z" style="fill:url(#b);opacity:.2"/>
<path transform="translate(0 1004.4)" d="m19.5 11c-1.765 0-3.229 1.301-3.469 3h-6.03v8h-2v1h5v-1h-2v-7h5.03c0.24 1.699 1.703 3 3.469 3 1.765 0 3.229-1.301 3.469-3h4.03v2h9v-2h2v16h-3.03c-0.24-1.699-1.703-3-3.469-3-1.765 0-3.229 1.301-3.469 3h-3.125c-0.204-0.586-0.75-1-1.406-1-0.828 0-1.5 0.672-1.5 1.5s0.672 1.5 1.5 1.5c0.656 0 1.202-0.414 1.406-1h3.125c0.24 1.699 1.703 3 3.469 3 1.765 0 3.229-1.301 3.469-3h4.03v-18h-3v-2h-9v2h-4.03c-0.24-1.699-1.703-3-3.469-3m0 1c0.503 0 0.983 0.15 1.375 0.406l-1.375 1.375-1.375-1.375c0.392-0.256 0.872-0.406 1.375-0.406m-2.094 1.125 1.375 1.375-1.375 1.375c-0.256-0.392-0.406-0.872-0.406-1.375s0.15-0.983 0.406-1.375m4.188 0c0.256 0.392 0.406 0.872 0.406 1.375s-0.15 0.983-0.406 1.375l-1.375-1.375zm-2.094 2.094 1.375 1.375c-0.392 0.256-0.872 0.406-1.375 0.406s-0.983-0.15-1.375-0.406zm-10.5 8.781v1h1v7h4.094c0.204 0.586 0.75 1 1.406 1 0.828 0 1.5-0.672 1.5-1.5 0-0.104-0.011-0.215-0.031-0.313l5.313-3.063-0.5-0.875-5.344 3.094c-0.258-0.209-0.579-0.344-0.938-0.344-0.656 0-1.202 0.414-1.406 1h-3.094v-6h1v-1zm22.5 5c1.381 0 2.5 1.119 2.5 2.5s-1.119 2.5-2.5 2.5-2.5-1.119-2.5-2.5 1.119-2.5 2.5-2.5m-16 2c0.276 0 0.5 0.224 0.5 0.5s-0.224 0.5-0.5 0.5-0.5-0.224-0.5-0.5 0.224-0.5 0.5-0.5m8 0c0.276 0 0.5 0.224 0.5 0.5s-0.224 0.5-0.5 0.5-0.5-0.224-0.5-0.5 0.224-0.5 0.5-0.5" style="color:#000000;fill:url(#c);stroke-width:2"/>
</g>
<path transform="matrix(.5 0 0 .5 .066304 .016549)" d="m4.7043 3.9815-0.012938 56.82h53.904l1.0222-2.8664s-23.875 0.76639-32.844-4.1404c-10.516-5.7529-15.372-49.697-15.372-49.697z" style="fill:url(#linearGradient3403);mix-blend-mode:normal;stroke-linejoin:round;stroke-width:1.1624;stroke:url(#linearGradient20558)"/>
<rect transform="matrix(.46839 0 0 .46744 .90638 1.0269)" x="1.0324" y=".59551" width="62.567" height="62.867" rx="5.803" ry="6.2447" style="fill:none;stroke-linejoin:round;stroke-miterlimit:7.8;stroke-opacity:.99515;stroke-width:3.7137;stroke:url(#linearGradient4557)"/>
</svg>

<?xml version="1.0" encoding="UTF-8" standalone="no"?>
<!-- Created with Inkscape (http://www.inkscape.org/) -->

<svg
   width="32"
   height="32"
   version="1.1"
   viewBox="0 0 32 32"
   id="svg22"
   xmlns:xlink="http://www.w3.org/1999/xlink"
   xmlns="http://www.w3.org/2000/svg"
   xmlns:svg="http://www.w3.org/2000/svg">
  <defs
     id="defs12">
    <linearGradient
       id="linearGradient1005-3-3"
       x1="5.2535"
       x2="9.3823996"
       y1="15.383"
       y2="2.9421"
       gradientTransform="matrix(0.99999,0,0,0.99999,1.632,-0.61743)"
       gradientUnits="userSpaceOnUse">
      <stop
         stop-color="#fa8200"
         offset="0"
         id="stop2" />
      <stop
         stop-color="#ff9600"
         offset=".36953"
         id="stop4" />
      <stop
         stop-color="#ffb400"
         offset="1"
         id="stop6" />
    </linearGradient>
    <filter
       id="filter4014"
       x="-0.062499933"
       y="-0.057692993"
       width="1.1249999"
       height="1.115386"
       color-interpolation-filters="sRGB">
      <feGaussianBlur
         stdDeviation="1.093751"
         id="feGaussianBlur9" />
    </filter>
    <linearGradient
       xlink:href="#linearGradient3487"
       id="linearGradient3403"
       gradientUnits="userSpaceOnUse"
       x1="6.9491749"
       y1="4.5549412"
       x2="11.215498"
       y2="59.052471" />
    <linearGradient
       id="linearGradient3487">
      <stop
         style="stop-color:#32373c;stop-opacity:1"
         offset="0"
         id="stop3481" />
      <stop
         id="stop3483"
         offset="0.36804965"
         style="stop-color:#1a1a1a;stop-opacity:1" />
      <stop
         style="stop-color:#31363b;stop-opacity:1"
         offset="1"
         id="stop3485" />
    </linearGradient>
    <linearGradient
       xlink:href="#linearGradient20604"
       id="linearGradient20558"
       gradientUnits="userSpaceOnUse"
       x1="25.802212"
       y1="20.373846"
       x2="25.111048"
       y2="58.912758" />
    <linearGradient
       id="linearGradient20604">
      <stop
         id="stop20598"
         offset="0"
         style="stop-color:#3d3d3d;stop-opacity:1" />
      <stop
         style="stop-color:#000000;stop-opacity:1"
         offset="0.61772454"
         id="stop20600" />
      <stop
         id="stop20602"
         offset="1"
         style="stop-color:#3d3d3d;stop-opacity:1" />
    </linearGradient>
    <filter
       style="color-interpolation-filters:sRGB"
       id="filter20720"
       x="-0.017024755"
       y="-0.016457183"
       width="1.0340491"
       height="1.0329144">
      <feGaussianBlur
         stdDeviation="0.14745661"
         id="feGaussianBlur20722" />
    </filter>
    <linearGradient
       gradientTransform="translate(0.36067797,-0.13016949)"
       xlink:href="#linearGradient4555"
       id="linearGradient4557"
       x1="43.499737"
       y1="64.011795"
       x2="44.141731"
       y2="0.30621234"
       gradientUnits="userSpaceOnUse" />
    <linearGradient
       id="linearGradient4555">
      <stop
         style="stop-color:#141618;stop-opacity:1"
         offset="0"
         id="stop4551" />
      <stop
         id="stop4559"
         offset="0.51820582"
         style="stop-color:#686868;stop-opacity:1" />
      <stop
         style="stop-color:#31363b;stop-opacity:1"
         offset="1"
         id="stop4553" />
    </linearGradient>
    <filter
       style="color-interpolation-filters:sRGB"
       id="filter4601"
       x="-0.030244955"
       width="1.0604899"
       y="-0.030100647"
       height="1.0602013">
      <feGaussianBlur
         stdDeviation="0.014790289"
         id="feGaussianBlur4603" />
    </filter>
    <linearGradient
       id="a"
       y1="1048.9"
       y2="1007.82"
       gradientUnits="userSpaceOnUse"
       x2="0">
      <stop
         stop-color="#3889e9"
         id="stop9104" />
      <stop
         offset="1"
         stop-color="#5ea5fb"
         id="stop9106" />
    </linearGradient>
    <linearGradient
       id="b"
       y1="513.38"
       x1="396.57001"
       y2="531.38"
       gradientUnits="userSpaceOnUse"
       x2="412.57001"
       gradientTransform="translate(-384.57,504.98)">
      <stop
         stop-color="#292c2f"
         id="stop9109" />
      <stop
         offset="1"
         stop-opacity="0"
         id="stop9111" />
    </linearGradient>
    <linearGradient
       id="c"
       y1="534.79999"
       y2="510.79999"
       gradientUnits="userSpaceOnUse"
       x2="0"
       gradientTransform="translate(-384.57,-499.8)">
      <stop
         stop-color="#8cbdf8"
         id="stop9114" />
      <stop
         offset="1"
         stop-color="#d5e8ff"
         id="stop9116" />
    </linearGradient>
  </defs>
  <g
     style="fill-rule:evenodd"
     transform="matrix(0.65948928,0,0,0.6814505,1.0435297,-685.29963)"
     id="g9131">
    <path
       style="fill:#ffffff"
       d="m 5,1009.36 h 38 v 38 H 5 Z"
       id="path9121" />
    <path
       style="fill:url(#a)"
       d="m 4,1008.36 h 40 v 40 H 4 Z"
       id="path9123" />
    <path
       style="color:#000000;opacity:0.2;fill:#ffffff;stroke-width:2"
       d="m 5,1009.36 v 38 h 38 v -38 z m 1,1 h 36 v 36 H 6 Z"
       id="path9125" />
    <path
       style="opacity:0.2;fill:url(#b)"
       d="m 10,1036.36 13,12 h 21 v -25 l -5,-5 v 18 h -4 l -3,3 -4,-3 z"
       id="path9127" />
    <path
       style="color:#000000;fill:url(#c);stroke-width:2"
       d="m 19.5,11 c -1.765,0 -3.229,1.301 -3.469,3 h -6.03 v 8 h -2 v 1 h 5 v -1 h -2 v -7 h 5.03 c 0.24,1.699 1.703,3 3.469,3 1.765,0 3.229,-1.301 3.469,-3 h 4.03 v 2 h 9 v -2 h 2 v 16 h -3.03 c -0.24,-1.699 -1.703,-3 -3.469,-3 -1.765,0 -3.229,1.301 -3.469,3 h -3.125 c -0.204,-0.586 -0.75,-1 -1.406,-1 -0.828,0 -1.5,0.672 -1.5,1.5 0,0.828 0.672,1.5 1.5,1.5 0.656,0 1.202,-0.414 1.406,-1 h 3.125 c 0.24,1.699 1.703,3 3.469,3 1.765,0 3.229,-1.301 3.469,-3 h 4.03 V 14 h -3 v -2 h -9 v 2 h -4.03 C 22.729,12.301 21.266,11 19.5,11 m 0,1 c 0.503,0 0.983,0.15 1.375,0.406 L 19.5,13.781 18.125,12.406 C 18.517,12.15 18.997,12 19.5,12 m -2.094,1.125 1.375,1.375 -1.375,1.375 C 17.15,15.483 17,15.003 17,14.5 c 0,-0.503 0.15,-0.983 0.406,-1.375 m 4.188,0 C 21.85,13.517 22,13.997 22,14.5 c 0,0.503 -0.15,0.983 -0.406,1.375 L 20.219,14.5 Z m -2.094,2.094 1.375,1.375 C 20.483,16.85 20.003,17 19.5,17 18.997,17 18.517,16.85 18.125,16.594 Z M 9,24 v 1 h 1 v 7 h 4.094 c 0.204,0.586 0.75,1 1.406,1 0.828,0 1.5,-0.672 1.5,-1.5 0,-0.104 -0.011,-0.215 -0.031,-0.313 l 5.313,-3.063 -0.5,-0.875 -5.344,3.094 C 16.18,30.134 15.859,29.999 15.5,29.999 c -0.656,0 -1.202,0.414 -1.406,1 H 11 v -6 h 1 v -1 z m 22.5,5 C 32.881,29 34,30.119 34,31.5 34,32.881 32.881,34 31.5,34 30.119,34 29,32.881 29,31.5 29,30.119 30.119,29 31.5,29 m -16,2 C 15.776,31 16,31.224 16,31.5 16,31.776 15.776,32 15.5,32 15.224,32 15,31.776 15,31.5 15,31.224 15.224,31 15.5,31 m 8,0 C 23.776,31 24,31.224 24,31.5 24,31.776 23.776,32 23.5,32 23.224,32 23,31.776 23,31.5 23,31.224 23.224,31 23.5,31"
       transform="translate(0,1004.36)"
       id="path9129" />
  </g>
  <path
     style="display:inline;mix-blend-mode:normal;fill:url(#linearGradient3403);fill-opacity:1;stroke:url(#linearGradient20558);stroke-width:1.16242;stroke-linecap:butt;stroke-linejoin:round;stroke-miterlimit:4;stroke-dasharray:none;stroke-opacity:1;filter:url(#filter20720)"
     d="M 4.7043071,3.9814882 4.6913695,60.80196 H 58.59546 l 1.022155,-2.866369 c 0,0 -23.87537,0.766388 -32.844441,-4.140386 C 16.257548,48.042344 11.401114,4.0978197 11.401114,4.0978197 Z"
     id="path1686"
     transform="matrix(0.5,0,0,0.5,0.06630362,0.01654936)" />
  <rect
     style="display:inline;fill:none;fill-opacity:1;stroke:url(#linearGradient4557);stroke-width:3.71366;stroke-linejoin:round;stroke-miterlimit:7.8;stroke-dasharray:none;stroke-opacity:0.995146;filter:url(#filter4601)"
     id="rect4539"
     width="62.566689"
     height="62.866646"
     x="1.0323594"
     y="0.59551275"
     ry="6.2447233"
     rx="5.8029528"
     transform="matrix(0.46839137,0,0,0.46743669,0.90638486,1.0268972)" />
</svg>
